svg/icon/bos.svg

<svg height="32" viewBox="0 0 32 32" width="32" xmlns="http://www.w3.org/2000/svg" xmlns:xlink="http://www.w3.org/1999/xlink"><defs><linearGradient id="a" x1="50%" x2="50%" y1="0%" y2="100%"><stop offset="0" stop-color="#fff" stop-opacity=".5"/><stop offset="1" stop-opacity=".5"/></linearGradient><circle id="b" cx="16" cy="15" r="15"/><filter id="c" height="111.7%" width="111.7%" x="-5.8%" y="-4.2%"><feOffset dy=".5" in="SourceAlpha" result="shadowOffsetOuter1"/><feGaussianBlur in="shadowOffsetOuter1" result="shadowBlurOuter1" stdDeviation=".5"/><feComposite in="shadowBlurOuter1" in2="SourceAlpha" operator="out" result="shadowBlurOuter1"/><feColorMatrix in="shadowBlurOuter1" values="0 0 0 0 0   0 0 0 0 0   0 0 0 0 0  0 0 0 0.199473505 0"/></filter><path id="d" d="m14.4318182 17.9508197v-1.9180328h2.9545454c1.969697 0 2.9545455-.4918033 2.9545455-1.4754099v-5.16393438c0-.98360655-.9848485-1.47540983-2.9545455-1.47540983h-4.7272727v3.09836061h-2.6590909v-5.0163934h7.0909091c3.9393939 0 5.9090909 1.08196721 5.9090909 3.24590164v5.45901636c0 2.1639345-1.969697 3.2459017-5.9090909 3.2459017zm5.9090909 1.1803278h2.6590909v1.6229509c0 2.1639344-1.969697 3.2459016-5.9090909 3.2459016h-7.0909091v-11.5081967h7.0909091c.4158929 0 .8098323.0120592 1.1818182.0361776v1.921219c-.2691789-.0262425-.5646334-.0393638-.8863637-.0393638h-4.7272727v7.6721311h1.7727273 2.9545454c1.969697 0 2.9545455-.4918033 2.9545455-1.4754098z"/><filter id="e" height="119.4%" width="126.9%" x="-13.5%" y="-6.9%"><feOffset dy=".5" in="SourceAlpha" result="shadowOffsetOuter1"/><feGaussianBlur in="shadowOffsetOuter1" result="shadowBlurOuter1" stdDeviation=".5"/><feColorMatrix in="shadowBlurOuter1" values="0 0 0 0 0   0 0 0 0 0   0 0 0 0 0  0 0 0 0.204257246 0"/></filter></defs><g fill="none" fill-rule="evenodd"><use fill="#000" filter="url(#c)" xlink:href="#b"/><use fill="#00a8d6" xlink:href="#b"/><use fill="url(#a)" xlink:href="#b"/><circle cx="16" cy="15" r="14.5" stroke="#000" stroke-opacity=".097"/><use fill="#000" filter="url(#e)" xlink:href="#d"/><use fill="#fff" xlink:href="#d"/></g></svg>

<svg xmlns="http://www.w3.org/2000/svg" xmlns:xlink="http://www.w3.org/1999/xlink" width="32" height="32" viewBox="0 0 32 32">
  <defs>
    <linearGradient id="bos-c" x1="50%" x2="50%" y1="0%" y2="100%">
      <stop offset="0%" stop-color="#FFF" stop-opacity=".5"/>
      <stop offset="100%" stop-opacity=".5"/>
    </linearGradient>
    <circle id="bos-b" cx="16" cy="15" r="15"/>
    <filter id="bos-a" width="111.7%" height="111.7%" x="-5.8%" y="-4.2%" filterUnits="objectBoundingBox">
      <feOffset dy=".5" in="SourceAlpha" result="shadowOffsetOuter1"/>
      <feGaussianBlur in="shadowOffsetOuter1" result="shadowBlurOuter1" stdDeviation=".5"/>
      <feComposite in="shadowBlurOuter1" in2="SourceAlpha" operator="out" result="shadowBlurOuter1"/>
      <feColorMatrix in="shadowBlurOuter1" values="0 0 0 0 0   0 0 0 0 0   0 0 0 0 0  0 0 0 0.199473505 0"/>
    </filter>
    <path id="bos-e" d="M14.4318182,17.9508197 L14.4318182,16.0327869 L17.3863636,16.0327869 C19.3560606,16.0327869 20.3409091,15.5409836 20.3409091,14.557377 L20.3409091,9.39344262 C20.3409091,8.40983607 19.3560606,7.91803279 17.3863636,7.91803279 L12.6590909,7.91803279 L12.6590909,11.0163934 L10,11.0163934 L10,6 L17.0909091,6 C21.030303,6 23,7.08196721 23,9.24590164 L23,14.704918 C23,16.8688525 21.030303,17.9508197 17.0909091,17.9508197 L14.4318182,17.9508197 Z M20.3409091,19.1311475 L23,19.1311475 L23,20.7540984 C23,22.9180328 21.030303,24 17.0909091,24 L10,24 L10,12.4918033 L17.0909091,12.4918033 C17.506802,12.4918033 17.9007414,12.5038625 18.2727273,12.5279809 L18.2727273,14.4491999 C18.0035484,14.4229574 17.7080939,14.4098361 17.3863636,14.4098361 L12.6590909,14.4098361 L12.6590909,22.0819672 L14.4318182,22.0819672 L17.3863636,22.0819672 C19.3560606,22.0819672 20.3409091,21.5901639 20.3409091,20.6065574 L20.3409091,19.1311475 Z"/>
    <filter id="bos-d" width="126.9%" height="119.4%" x="-13.5%" y="-6.9%" filterUnits="objectBoundingBox">
      <feOffset dy=".5" in="SourceAlpha" result="shadowOffsetOuter1"/>
      <feGaussianBlur in="shadowOffsetOuter1" result="shadowBlurOuter1" stdDeviation=".5"/>
      <feColorMatrix in="shadowBlurOuter1" values="0 0 0 0 0   0 0 0 0 0   0 0 0 0 0  0 0 0 0.204257246 0"/>
    </filter>
  </defs>
  <g fill="none" fill-rule="evenodd">
    <use fill="#000" filter="url(#bos-a)" xlink:href="#bos-b"/>
    <use fill="#00A8D6" xlink:href="#bos-b"/>
    <use fill="url(#bos-c)" style="mix-blend-mode:soft-light" xlink:href="#bos-b"/>
    <circle cx="16" cy="15" r="14.5" stroke="#000" stroke-opacity=".097"/>
    <g>
      <use fill="#000" filter="url(#bos-d)" xlink:href="#bos-e"/>
      <use fill="#FFF" xlink:href="#bos-e"/>
    </g>
  </g>
</svg>
